!!!COM: Fanny (Mendelssohn) Hensel
!!!CNT: Deutsch
!!!TXO: Deutsch
!!!OTL: "Nachtwanderer"
!!!LYR: von Eichendorff, Joseph Freiherr
!!!OPR: 
!!!OPS: Op. 7
!!!ONM: No. 1
!!!ENC: Emily Thomas
!!!YOR: Hensel: Ausgewa2hlte Lieder fu2r Singstimme und Klavier
!!!YOR: Breitkopf & Hartel, 1994
!!!ODT: 1843/
!!NB: Vocal melody and text encoded.
**kern	**silbe
=1-	=1
*clefG2	*
*k[b-]	*
*M9/8	*
*MM[Andante con moto]	*
2.r	.
4.r	.
=2	=2
4r	.
8r	.
4r	.
8r	.
4r	.
{8c	{Ich
=3	=3
4c	wand-
8d	-re
4e	durch
8f	die
4g	stil-
8a	-le
=4	=4
2.b-}	Nacht,}
{4.a	{da
=5	=5
4d	schleicht
8e	der
4f	Monday
8g	so
4a	heim-
8b-	-lich
=6	=6
4.dd	sacht
4.cc#}	|}
4r	.
8r	.
=7	=7
{4.dd	{oft
4a	aus
8d	der
4f	dun-
8g	-keln
=8	=8
[4.a	Wol-
8a]	|
8g	|
8f	-ken-
4e	-hu2l-
8f	|
=9	=9
4.d}	-le.}
4r	.
8r	.
4r	.
8r	.
=10	=10
4r	.
{8e	{Und
4g	hin
8b-	und
4dd	her
8b-	im
=11	=11
4.a}	Tal}
4r	.
8r	.
4r	.
8r	.
=12	=12
4r	.
{8b-	{er-
4cc	-wacht
8d	die
4ee-	Nach-
8cc#	-ti-
=13	=13
4.dd}	gall,}
4r	.
8r	.
4r	.
8r	.
=14	=14
{4.a	{dann
4b-	wie-
8cc	-der
4dd	al-
8ee	-les
=15	=15
2.ff	grau,
4f	al-
8g	-les
=16	=16
[4.a-	grau
8a-]	|
8g	|
8f	und
4e	stil-
8g	|
=17	=17
4.f}	-le.}
4r	.
8r	.
4r	.
8r	.
=18	=18
4r	.
8r	.
4r	.
8r	.
{4.a	{O
=19	=19
4d	wun-
8e	-der-
4f	-ba-
8g	-rer
4a	Nacht-
8b-	-ge-
=20	=20
4.dd	-sang,
4.cc#}	|}
4r	.
{8cc#	{von
=21	=21
4dd	fern
8b-	im
4a	Land
8f	der
4g	Stro2-
8a	-me
=22	=22
4.d}	Gang,}
4r	.
8r	.
4r	.
8r	.
=23	=23
{4.b-	{leis'
4f	Schau-
8d	-ern
4f	in
8b-	den
=24	=24
2.dd	dun-
4.cc	-keln
=25	=25
4.cc	Ba2u-
4.bn}	-men,}
4r	.
8r	.
=26	=26
*M6/8	*
4r	.
8r	.
{8e	{irrst
8g	die
8b-	Ge-
=27	=27
8.dd	-dan-
16cc	-ken
4b-}	mir,}
4r	.
=28	=28
4r	.
8r	.
{8f	{mein
8a-	wir-
8cc	-res
=29	=29
8.ee-	Sin-
16dd-	-gen
4cc}	hier}
4r	.
=30	=30
4r	.
8r	.
{8f	{ist
8a-	wie
8bn	ein
=31	=31
4.dd	Ru-
8a-	-fen
8g	nur
8f	aus
=32	=32
*M9/8	*
[2.cc	Tra2u-
4.cc]	|
=33	=33
4.e}	-men,}
4r	.
8r	.
4r	.
8r	.
=34	=34
{4.a	{mein
4b-	Sin-
8cc	-gen
4dd	ist
8ee	ein
=35	=35
2.ff	Ru-
4f	-fen,
8g	ein
=36	=36
[4.a-	Ru-
8a-]	|
8g	|
8f	-fen
4bn	nur
8cc	aus
=37	=37
2.dd-	Tra2u-
4.e	|
=38	=38
4.f}	-men.}
4r	.
8r	.
4r	.
8r	.
==	==
*-	*-
